static/img/svg/folder-plus.svg

<svg xmlns="http://www.w3.org/2000/svg" width="24" height="24" viewBox="0 0 24 24"><path d="M11 9v3H8v2h3v3h2v-3h3v-2h-3V9z"/><path d="M21 5.063h-8.764L8.447 3.168A1.002 1.002 0 0 0 8 3.063H3a1 1 0 0 0-1 1V20a1 1 0 0 0 1 1h18a1 1 0 0 0 1-1V6.063a1 1 0 0 0-1-1zM20 19H4V5.063h3.764l3.789 1.895c.138.068.292.105.447.105h8V19z"/></svg>

<svg xmlns="http://www.w3.org/2000/svg" width="24" height="24" viewBox="0 0 24 24"><path d="M11 9L11 12 8 12 8 14 11 14 11 17 13 17 13 14 16 14 16 12 13 12 13 9z"/><path d="M21,5.063h-8.764L8.447,3.168C8.309,3.099,8.155,3.063,8,3.063H3c-0.553,0-1,0.448-1,1V20c0,0.553,0.447,1,1,1h18 c0.553,0,1-0.447,1-1V6.063C22,5.51,21.553,5.063,21,5.063z M20,19H4V5.063h3.764l3.789,1.895C11.691,7.026,11.845,7.063,12,7.063 h8V19z"/></svg>
